omega/mobile/images/sports/branch.svg

<svg height="5.68889in" viewBox="0 0 512 512" width="5.68889in" xmlns="http://www.w3.org/2000/svg"><path d="m470 37.18c27.16 23.9 22.01 68.46-10 85.5-10.42 5.54-18.65 5.45-30 5.32-3.99-.05-11.07-1.74-14-.7-4.83 1.73-14.97 12.67-19 16.7 0 0-36 35-36 35s-20 19.01-20 19.01-35 34.99-35 34.99-18 17-18 17c-2.76 2.76-6.75 6.33-8.05 10-1.23 3.17.04 10.89 0 15 0 0 1.05 22 1.05 22s2 51 2 51 1 15 1 15 .91 17 .91 17c.19 2.78-.25 6.44 1.11 8.9 1.68 3.03 11.15 7.9 14.98 11.28 9.85 8.7 16.84 21.52 17 34.82.18 15.99-2.28 29.1-14.09 40.91-24.35 24.35-68.6 18.98-85.02-11.91-8.94-16.82-7.87-39.4 3.15-55 3.03-4.29 6.76-8.09 10.96-11.24 3.29-2.47 7.5-4.28 8.07-8.77v-8.99s-1.07-36-1.07-36-1-15-1-15-1-30-1-30-1-15-1-15v-8c-.02-3.68-.02-7.71-1.93-10.98-3.24-5.53-17.83-11.15-24.07-14.27 0 0-69-34-69-34s-22-10.53-22-10.53c-2.5-1.18-8.66-4.6-11-4.84-3.48-.36-11.19 4.67-15 6.16-7.29 2.85-14.28 3.5-22 3.46-25.87-.12-49.96-20.3-50-47-.01-7.56-.64-14.72 1.75-22 6.04-18.45 25.67-33.77 45.25-34h9c19.11.23 35.41 12.12 43.73 29 5.58 11.32 3.06 19.87 7.7 24.37 2.18 2.12 18.64 9.91 22.57 11.88 0 0 52 25.5 52 25.5s35 17.5 35 17.5c4.51 2.25 9.98 6.39 15 3.51 3.8-2.18 11.54-10.34 15-13.76 0 0 20-19 20-19s20-19.96 20-19.96 10-9.05 10-9.05 24-23.95 24-23.95 14-13.04 14-13.04 18-18 18-18c2.11-2.11 6.8-6.44 7.89-9 .87-2.05-.88-12.21-.89-16-.04-27.77 15.29-47.44 43-52.56 16.13-2.07 32.47.71 45 11.74z"/></svg>

<?xml version="1.0" encoding="UTF-8" standalone="no"?>
<!DOCTYPE svg PUBLIC "-//W3C//DTD SVG 20010904//EN"
              "http://www.w3.org/TR/2001/REC-SVG-20010904/DTD/svg10.dtd">

<svg xmlns="http://www.w3.org/2000/svg"
     width="5.68889in" height="5.68889in"
     viewBox="0 0 512 512">
  <path id="Selection"
        fill="black"
        d="M 470.00,37.18
           C 497.16,61.08 492.01,105.64 460.00,122.68
             449.58,128.22 441.35,128.13 430.00,128.00
             426.01,127.95 418.93,126.26 416.00,127.30
             411.17,129.03 401.03,139.97 397.00,144.00
             397.00,144.00 361.00,179.00 361.00,179.00
             361.00,179.00 341.00,198.01 341.00,198.01
             341.00,198.01 306.00,233.00 306.00,233.00
             306.00,233.00 288.00,250.00 288.00,250.00
             285.24,252.76 281.25,256.33 279.95,260.00
             278.72,263.17 279.99,270.89 279.95,275.00
             279.95,275.00 281.00,297.00 281.00,297.00
             281.00,297.00 283.00,348.00 283.00,348.00
             283.00,348.00 284.00,363.00 284.00,363.00
             284.00,363.00 284.91,380.00 284.91,380.00
             285.10,382.78 284.66,386.44 286.02,388.90
             287.70,391.93 297.17,396.80 301.00,400.18
             310.85,408.88 317.84,421.70 318.00,435.00
             318.18,450.99 315.72,464.10 303.91,475.91
             279.56,500.26 235.31,494.89 218.89,464.00
             209.95,447.18 211.02,424.60 222.04,409.00
             225.07,404.71 228.80,400.91 233.00,397.76
             236.29,395.29 240.50,393.48 241.07,388.99
             241.07,388.99 241.07,380.00 241.07,380.00
             241.07,380.00 240.00,344.00 240.00,344.00
             240.00,344.00 239.00,329.00 239.00,329.00
             239.00,329.00 238.00,299.00 238.00,299.00
             238.00,299.00 237.00,284.00 237.00,284.00
             237.00,284.00 237.00,276.00 237.00,276.00
             236.98,272.32 236.98,268.29 235.07,265.02
             231.83,259.49 217.24,253.87 211.00,250.75
             211.00,250.75 142.00,216.75 142.00,216.75
             142.00,216.75 120.00,206.22 120.00,206.22
             117.50,205.04 111.34,201.62 109.00,201.38
             105.52,201.02 97.81,206.05 94.00,207.54
             86.71,210.39 79.72,211.04 72.00,211.00
             46.13,210.88 22.04,190.70 22.00,164.00
             21.99,156.44 21.36,149.28 23.75,142.00
             29.79,123.55 49.42,108.23 69.00,108.00
             69.00,108.00 78.00,108.00 78.00,108.00
             97.11,108.23 113.41,120.12 121.73,137.00
             127.31,148.32 124.79,156.87 129.43,161.37
             131.61,163.49 148.07,171.28 152.00,173.25
             152.00,173.25 204.00,198.75 204.00,198.75
             204.00,198.75 239.00,216.25 239.00,216.25
             243.51,218.50 248.98,222.64 254.00,219.76
             257.80,217.58 265.54,209.42 269.00,206.00
             269.00,206.00 289.00,187.00 289.00,187.00
             289.00,187.00 309.00,167.04 309.00,167.04
             309.00,167.04 319.00,157.99 319.00,157.99
             319.00,157.99 343.00,134.04 343.00,134.04
             343.00,134.04 357.00,121.00 357.00,121.00
             357.00,121.00 375.00,103.00 375.00,103.00
             377.11,100.89 381.80,96.56 382.89,94.00
             383.76,91.95 382.01,81.79 382.00,78.00
             381.96,50.23 397.29,30.56 425.00,25.44
             441.13,23.37 457.47,26.15 470.00,37.18 Z" />
</svg>
